src/img/content/main-logo-5.svg

<?xml version="1.0" encoding="UTF-8" standalone="no"?>
<svg width="163px" height="125px" viewBox="0 0 163 125" version="1.1" xmlns="http://www.w3.org/2000/svg" xmlns:xlink="http://www.w3.org/1999/xlink">
    <!-- Generator: Sketch 3.8.3 (29802) - http://www.bohemiancoding.com/sketch -->
    <title>Group 2</title>
    <desc>Created with Sketch.</desc>
    <defs></defs>
    <g id="Page-1" stroke="none" stroke-width="1" fill="none" fill-rule="evenodd">
        <g id="home-1440-" transform="translate(-272.000000, -5657.000000)">
            <g id="footer" transform="translate(70.000000, 5562.000000)">
                <g id="logo" transform="translate(201.000000, 94.000000)">
                    <g id="Path-9923-+-Group">
                        <g id="Group-2" transform="translate(1.000000, 1.000000)">
                            <path d="M33.5210904,124.973758 L62.795167,124.973758 L62.795167,117.581367 L33.5210904,117.581367 L33.5210904,124.973758 Z M36.5015227,42.1029845 L32.2207366,49.7981691 L27.9392927,42.1029845 L21.3645001,42.1029845 L21.3645001,67.0554403 L27.7860081,67.0554403 L27.7860081,53.5332588 L30.6148662,58.9128164 L33.8259492,58.9128164 L36.6548073,53.5332588 L36.6548073,67.0554403 L43.2670988,67.0554403 L43.2670988,42.1029845 L36.5015227,42.1029845 Z M56.4210918,42.1029845 L56.4210918,67.0554403 L73.4310816,67.0554403 L73.4310816,61.26573 L63.0340411,61.26573 L63.0340411,57.0819153 L71.6732423,57.0819153 L71.6732423,51.292205 L63.0340411,51.292205 L63.0340411,47.8926949 L73.4166084,47.8926949 L73.4166084,42.1029845 L56.4210918,42.1029845 Z M27.7315361,80.0327231 L21.488312,104.985179 L28.0828408,104.985179 L29.2143841,100.166206 L35.1444602,100.166206 L36.2760035,104.985179 L43.1422343,104.985179 L36.9003259,80.0327231 L27.7315361,80.0327231 Z M32.1399497,87.5781184 L33.9741024,95.2353735 L30.3452695,95.2353735 L32.1399497,87.5781184 Z M56.3648435,80.0859529 L56.3648435,85.8756633 L61.593626,85.8756633 L61.593626,105.038409 L68.2065753,105.038409 L68.2065753,85.8756633 L73.4360156,85.8756633 L73.4360156,80.0859529 L56.3648435,80.0859529 Z" id="Fill-1" fill="#FFFFFF"></path>
                            <path d="M12.9837913,67.9965908 C11.7300088,63.1590394 13.1827386,55.2025235 17.5299563,46.6799911 C22.8244868,36.3002927 31.7663605,26.0858747 43.9878695,17.3287506 C55.0762921,9.3835214 75.1353861,10.6156832 94.0940255,20.1027232 C113.368476,29.7477973 126.113973,45.1522667 126.113971,59.8364088 C126.113968,74.8716155 121.016273,84.019116 111.566814,89.0541221 C103.491589,93.3568872 92.2633986,94.6693071 78.6880624,93.527681 C74.5741548,93.1817194 70.8079941,92.8944075 66.3483806,92.5771314 C65.5634711,92.5212896 64.7868228,92.4665672 63.7668911,92.3950945 C62.5367396,92.3089826 61.9126845,92.2652818 61.3644666,92.2267147 C59.5261593,92.09739 58.2458924,92.0048688 57.0538654,91.9140821 C49.3402353,91.3266 45.5540182,90.7814452 41.7949707,89.6450605 C39.6563934,88.9985546 37.4662344,88.1257791 34.8525294,86.874239 C31.3676706,85.2055577 29.8947493,84.7526144 23.9884586,83.2154543 C20.621876,82.3392738 19.4324795,81.7888124 18.27083,80.5384687 C16.4733112,78.6037058 14.7398882,74.7722553 12.9837913,67.9965908 L12.9837913,67.9965908 Z M1.36759663,71.0072423 C5.5022135,86.9601065 10.2123335,92.0298533 20.9660447,94.828594 C26.0904521,96.1622627 27.1344279,96.4832994 29.6699844,97.6974191 C32.8073622,99.1997134 35.5589741,100.296227 38.3224971,101.131658 C43.1209773,102.58227 47.6241244,103.230651 56.1425658,103.879429 C57.362563,103.972346 58.6628774,104.066316 60.5223492,104.19713 C61.072817,104.235855 61.6992043,104.279719 62.928037,104.365739 C63.9440899,104.43694 64.7168616,104.491389 65.4968013,104.546877 C69.9089603,104.860777 73.6260333,105.144344 77.6824647,105.485472 C93.3490402,106.802962 106.705052,105.24183 117.209766,99.6445463 C130.709865,92.4512161 138.113968,79.1650104 138.113971,59.8364105 C138.113974,39.8443311 122.395119,20.8462008 99.4640843,9.37134543 C76.9262576,-1.90674564 52.3382304,-3.41710444 36.9984987,7.57433138 C10.557065,26.5205117 -3.18163555,53.4546405 1.36759663,71.0072423 L1.36759663,71.0072423 Z" id="Shape" fill="#FFD500"></path>
                            <path d="M94.6270567,69.8413929 C97.6630332,69.8413929 99.7942484,68.2731402 99.7942484,65.4784334 C99.7942484,62.9853136 98.1857841,61.9599176 95.3307599,61.2160028 C92.8979575,60.5927229 92.2947834,60.2911358 92.2947834,59.3662688 C92.2947834,58.6424599 92.9180633,58.0996032 94.1043058,58.0996032 C95.2905483,58.0996032 96.5170023,58.6223541 97.7635622,59.4869037 L99.3720265,57.1546304 C97.9445144,56.0085995 96.1953094,55.3652138 94.1445174,55.3652138 C91.2693874,55.3652138 89.2185953,57.0541013 89.2185953,59.6075385 C89.2185953,62.4424569 91.0482235,63.2265833 93.8831419,63.9503922 C96.2355211,64.5535664 96.7180604,64.9556825 96.7180604,65.7398088 C96.7180604,66.6043584 95.9540398,67.1070035 94.6873741,67.1070035 C93.0789098,67.1070035 91.7519267,66.443512 90.485261,65.3980102 L88.6556328,67.5895428 C90.3445204,69.0974782 92.4958414,69.8413929 94.6270567,69.8413929 L94.6270567,69.8413929 Z M105.705355,69.8212871 C106.730751,69.8212871 107.474666,69.5800175 108.118051,69.1980072 L108.118051,66.745099 C107.675724,66.9863687 107.173079,67.1271093 106.610116,67.1271093 C105.926519,67.1271093 105.624932,66.7853107 105.624932,66.0816075 L105.624932,61.4773783 L108.158263,61.4773783 L108.158263,58.8636237 L105.624932,58.8636237 L105.624932,56.1091285 L102.568849,56.1091285 L102.568849,58.8636237 L101.282078,58.8636237 L101.282078,61.4773783 L102.568849,61.4773783 L102.568849,66.5842526 C102.568849,69.0773724 103.835515,69.8212871 105.705355,69.8212871 L105.705355,69.8212871 Z M113.988946,69.8413929 C115.537093,69.8413929 116.441854,69.0170549 117.145558,68.1122937 L117.145558,69.6403349 L120.20164,69.6403349 L120.20164,58.8636237 L117.145558,58.8636237 L117.145558,64.8752592 C117.145558,66.3228772 116.401643,67.0667919 115.235506,67.0667919 C114.06937,67.0667919 113.385772,66.3228772 113.385772,64.8752592 L113.385772,58.8636237 L110.32969,58.8636237 L110.32969,65.8403379 C110.32969,68.3133518 111.676779,69.8413929 113.988946,69.8413929 L113.988946,69.8413929 Z M127.359306,69.8413929 C128.947665,69.8413929 129.973061,69.0974782 130.716976,68.0921879 L130.716976,69.6403349 L133.773058,69.6403349 L133.773058,54.9630977 L130.716976,54.9630977 L130.716976,60.27103 C129.993167,59.4064805 128.987876,58.6625657 127.359306,58.6625657 C124.805869,58.6625657 122.45349,60.6329345 122.45349,64.2318735 C122.45349,67.8710241 124.846081,69.8413929 127.359306,69.8413929 L127.359306,69.8413929 Z M128.143433,67.2477442 C126.71592,67.2477442 125.509572,66.0615017 125.509572,64.2720851 C125.509572,62.4223511 126.71592,61.2562145 128.143433,61.2562145 C129.570945,61.2562145 130.757187,62.4424569 130.757187,64.2318735 C130.757187,66.0615017 129.570945,67.2477442 128.143433,67.2477442 L128.143433,67.2477442 Z M136.567765,57.6773813 L139.784693,57.6773813 L139.784693,54.9630977 L136.567765,54.9630977 L136.567765,57.6773813 Z M136.648188,69.6403349 L139.70427,69.6403349 L139.70427,58.8636237 L136.648188,58.8636237 L136.648188,69.6403349 Z M147.686274,69.8816045 C149.636537,69.8816045 151.084155,69.117584 152.089446,67.8710241 L150.340241,66.3228772 C149.495797,67.1070035 148.751882,67.4286964 147.726486,67.4286964 C146.359291,67.4286964 145.394213,66.7048874 145.092626,65.3175869 L152.592091,65.3175869 C152.612197,65.0361057 152.632302,64.7546244 152.632302,64.5133548 C152.632302,61.4572725 150.983626,58.6625657 147.384687,58.6625657 C144.248182,58.6625657 142.056649,61.195897 142.056649,64.2720851 C142.056649,67.6096486 144.44924,69.8816045 147.686274,69.8816045 L147.686274,69.8816045 Z M145.052414,63.4075355 C145.293684,62.020235 146.118022,61.1154738 147.384687,61.1154738 C148.671459,61.1154738 149.475691,62.0403408 149.656643,63.4075355 L145.052414,63.4075355 Z M158.684149,69.8413929 C161.016423,69.8413929 162.805839,68.7556795 162.805839,66.3630888 C162.805839,64.3525083 161.056634,63.6286994 159.548699,63.1260543 C158.382562,62.7239382 157.357166,62.4424569 157.357166,61.8392828 C157.357166,61.3768493 157.739177,61.0551564 158.483091,61.0551564 C159.267218,61.0551564 160.332825,61.4371667 161.398433,62.0604466 L162.56457,59.9493372 C161.398433,59.1652108 159.910603,58.7027773 158.543409,58.7027773 C156.371982,58.7027773 154.602671,59.9292314 154.602671,62.120764 C154.602671,64.2519793 156.311665,64.9556825 157.8196,65.3980102 C159.005842,65.7599146 160.051344,65.9810785 160.051344,66.64457 C160.051344,67.1673209 159.649228,67.4890138 158.764573,67.4890138 C157.759282,67.4890138 156.532828,67.0466861 155.366692,66.2022423 L154.059814,68.2128228 C155.487327,69.3387478 157.176214,69.8413929 158.684149,69.8413929 L158.684149,69.8413929 Z M89.6207114,88.9874265 L92.7170053,88.9874265 L92.7170053,84.6847844 L94.3455754,82.9958968 L98.708535,88.9874265 L102.428109,88.9874265 L96.4365791,80.8847873 L102.166733,74.9133634 L98.4270537,74.9133634 L92.7170053,81.0657396 L92.7170053,74.9133634 L89.6207114,74.9133634 L89.6207114,88.9874265 Z M105.544508,92.2646726 C107.374137,92.2646726 108.258792,91.4403346 109.08313,89.248802 L113.224926,78.2107154 L110.048209,78.2107154 L107.69583,85.549334 L105.242921,78.2107154 L102.005887,78.2107154 L106.228106,89.0276381 C105.96673,89.5704948 105.685249,89.7313413 105.162498,89.7313413 C104.760382,89.7313413 104.257737,89.550389 103.855621,89.3091194 L102.830225,91.5207579 C103.614351,91.9831914 104.438689,92.2646726 105.544508,92.2646726 L105.544508,92.2646726 Z M115.094766,77.0244729 L118.311694,77.0244729 L118.311694,74.3101893 L115.094766,74.3101893 L115.094766,77.0244729 Z M115.175189,88.9874265 L118.231271,88.9874265 L118.231271,78.2107154 L115.175189,78.2107154 L115.175189,88.9874265 Z M124.383647,89.0678497 L127.158248,89.0678497 L131.400573,78.2107154 L128.223856,78.2107154 L125.791053,85.4286991 L123.378357,78.2107154 L120.141322,78.2107154 L124.383647,89.0678497 Z" id="Studies" fill="#FFFFFF"></path>
                        </g>
                    </g>
                </g>
            </g>
        </g>
    </g>
</svg>

<?xml version="1.0" encoding="UTF-8" standalone="no"?>
<svg
   xmlns:dc="http://purl.org/dc/elements/1.1/"
   xmlns:cc="http://creativecommons.org/ns#"
   xmlns:rdf="http://www.w3.org/1999/02/22-rdf-syntax-ns#"
   xmlns:svg="http://www.w3.org/2000/svg"
   xmlns="http://www.w3.org/2000/svg"
   xmlns:sodipodi="http://sodipodi.sourceforge.net/DTD/sodipodi-0.dtd"
   xmlns:inkscape="http://www.inkscape.org/namespaces/inkscape"
   width="163px"
   height="125px"
   viewBox="0 0 163 125"
   version="1.1"
   id="svg4195"
   inkscape:version="0.91 r13725"
   sodipodi:docname="main-logo-5.svg">
  <metadata
     id="metadata4214">
    <rdf:RDF>
      <cc:Work
         rdf:about="">
        <dc:format>image/svg+xml</dc:format>
        <dc:type
           rdf:resource="http://purl.org/dc/dcmitype/StillImage" />
      </cc:Work>
    </rdf:RDF>
  </metadata>
  <sodipodi:namedview
     pagecolor="#ffffff"
     bordercolor="#666666"
     borderopacity="1"
     objecttolerance="10"
     gridtolerance="10"
     guidetolerance="10"
     inkscape:pageopacity="0"
     inkscape:pageshadow="2"
     inkscape:window-width="1871"
     inkscape:window-height="1056"
     id="namedview4212"
     showgrid="false"
     inkscape:zoom="4.3865031"
     inkscape:cx="51.521678"
     inkscape:cy="62.5"
     inkscape:window-x="1329"
     inkscape:window-y="24"
     inkscape:window-maximized="1"
     inkscape:current-layer="svg4195" />
  <!-- Generator: Sketch 3.8.3 (29802) - http://www.bohemiancoding.com/sketch -->
  <title
     id="title4197">Group 2</title>
  <desc
     id="desc4199">Created with Sketch.</desc>
  <defs
     id="defs4201" />
  <g
     id="Page-1"
     stroke="none"
     stroke-width="1"
     fill="none"
     fill-rule="evenodd">
    <g
       id="home-1440-"
       transform="translate(-272.000000, -5657.000000)">
      <g
         id="footer"
         transform="translate(70.000000, 5562.000000)">
        <g
           id="logo"
           transform="translate(201.000000, 94.000000)">
          <g
             id="Path-9923-+-Group">
            <g
               id="Group-2"
               transform="translate(1.000000, 1.000000)">
              <path
                 d="M12.9837913,67.9965908 C11.7300088,63.1590394 13.1827386,55.2025235 17.5299563,46.6799911 C22.8244868,36.3002927 31.7663605,26.0858747 43.9878695,17.3287506 C55.0762921,9.3835214 75.1353861,10.6156832 94.0940255,20.1027232 C113.368476,29.7477973 126.113973,45.1522667 126.113971,59.8364088 C126.113968,74.8716155 121.016273,84.019116 111.566814,89.0541221 C103.491589,93.3568872 92.2633986,94.6693071 78.6880624,93.527681 C74.5741548,93.1817194 70.8079941,92.8944075 66.3483806,92.5771314 C65.5634711,92.5212896 64.7868228,92.4665672 63.7668911,92.3950945 C62.5367396,92.3089826 61.9126845,92.2652818 61.3644666,92.2267147 C59.5261593,92.09739 58.2458924,92.0048688 57.0538654,91.9140821 C49.3402353,91.3266 45.5540182,90.7814452 41.7949707,89.6450605 C39.6563934,88.9985546 37.4662344,88.1257791 34.8525294,86.874239 C31.3676706,85.2055577 29.8947493,84.7526144 23.9884586,83.2154543 C20.621876,82.3392738 19.4324795,81.7888124 18.27083,80.5384687 C16.4733112,78.6037058 14.7398882,74.7722553 12.9837913,67.9965908 L12.9837913,67.9965908 Z M1.36759663,71.0072423 C5.5022135,86.9601065 10.2123335,92.0298533 20.9660447,94.828594 C26.0904521,96.1622627 27.1344279,96.4832994 29.6699844,97.6974191 C32.8073622,99.1997134 35.5589741,100.296227 38.3224971,101.131658 C43.1209773,102.58227 47.6241244,103.230651 56.1425658,103.879429 C57.362563,103.972346 58.6628774,104.066316 60.5223492,104.19713 C61.072817,104.235855 61.6992043,104.279719 62.928037,104.365739 C63.9440899,104.43694 64.7168616,104.491389 65.4968013,104.546877 C69.9089603,104.860777 73.6260333,105.144344 77.6824647,105.485472 C93.3490402,106.802962 106.705052,105.24183 117.209766,99.6445463 C130.709865,92.4512161 138.113968,79.1650104 138.113971,59.8364105 C138.113974,39.8443311 122.395119,20.8462008 99.4640843,9.37134543 C76.9262576,-1.90674564 52.3382304,-3.41710444 36.9984987,7.57433138 C10.557065,26.5205117 -3.18163555,53.4546405 1.36759663,71.0072423 L1.36759663,71.0072423 Z"
                 id="Shape"
                 fill="#FFD500" />
              <path
                 d="m 33.52109,124.97376 29.274077,0 0,-7.39239 -29.274077,0 0,7.39239 z m 2.980433,-82.870776 -4.280786,7.695185 -4.281444,-7.695185 -6.574793,0 0,24.952456 6.421508,0 0,-13.522181 2.828858,5.379557 3.211083,0 2.828858,-5.379557 0,13.522181 6.612292,0 0,-24.952456 -6.765576,0 z m 19.919569,0 0,24.952456 17.00999,0 0,-5.78971 -10.397041,0 0,-4.183815 8.639201,0 0,-5.78971 -8.639201,0 0,-3.39951 10.382567,0 0,-5.789711 -16.995516,0 z m -28.689556,37.929739 -6.243224,24.952457 6.594529,0 1.131543,-4.81897 5.930076,0 1.131544,4.81897 6.86623,0 -6.241908,-24.952457 -9.16879,0 z m 4.408414,7.545395 1.834152,7.657255 -3.628833,0 1.794681,-7.657255 z m 24.224893,-7.492165 0,5.78971 5.228783,0 0,19.162747 6.612949,0 0,-19.162747 5.229441,0 0,-5.78971 -17.071173,0 z"
                 id="Fill-1"
                 inkscape:connector-curvature="0"
                 style="fill:#ffffff" />
              <path
                 d="M94.6270567,69.8413929 C97.6630332,69.8413929 99.7942484,68.2731402 99.7942484,65.4784334 C99.7942484,62.9853136 98.1857841,61.9599176 95.3307599,61.2160028 C92.8979575,60.5927229 92.2947834,60.2911358 92.2947834,59.3662688 C92.2947834,58.6424599 92.9180633,58.0996032 94.1043058,58.0996032 C95.2905483,58.0996032 96.5170023,58.6223541 97.7635622,59.4869037 L99.3720265,57.1546304 C97.9445144,56.0085995 96.1953094,55.3652138 94.1445174,55.3652138 C91.2693874,55.3652138 89.2185953,57.0541013 89.2185953,59.6075385 C89.2185953,62.4424569 91.0482235,63.2265833 93.8831419,63.9503922 C96.2355211,64.5535664 96.7180604,64.9556825 96.7180604,65.7398088 C96.7180604,66.6043584 95.9540398,67.1070035 94.6873741,67.1070035 C93.0789098,67.1070035 91.7519267,66.443512 90.485261,65.3980102 L88.6556328,67.5895428 C90.3445204,69.0974782 92.4958414,69.8413929 94.6270567,69.8413929 L94.6270567,69.8413929 Z M105.705355,69.8212871 C106.730751,69.8212871 107.474666,69.5800175 108.118051,69.1980072 L108.118051,66.745099 C107.675724,66.9863687 107.173079,67.1271093 106.610116,67.1271093 C105.926519,67.1271093 105.624932,66.7853107 105.624932,66.0816075 L105.624932,61.4773783 L108.158263,61.4773783 L108.158263,58.8636237 L105.624932,58.8636237 L105.624932,56.1091285 L102.568849,56.1091285 L102.568849,58.8636237 L101.282078,58.8636237 L101.282078,61.4773783 L102.568849,61.4773783 L102.568849,66.5842526 C102.568849,69.0773724 103.835515,69.8212871 105.705355,69.8212871 L105.705355,69.8212871 Z M113.988946,69.8413929 C115.537093,69.8413929 116.441854,69.0170549 117.145558,68.1122937 L117.145558,69.6403349 L120.20164,69.6403349 L120.20164,58.8636237 L117.145558,58.8636237 L117.145558,64.8752592 C117.145558,66.3228772 116.401643,67.0667919 115.235506,67.0667919 C114.06937,67.0667919 113.385772,66.3228772 113.385772,64.8752592 L113.385772,58.8636237 L110.32969,58.8636237 L110.32969,65.8403379 C110.32969,68.3133518 111.676779,69.8413929 113.988946,69.8413929 L113.988946,69.8413929 Z M127.359306,69.8413929 C128.947665,69.8413929 129.973061,69.0974782 130.716976,68.0921879 L130.716976,69.6403349 L133.773058,69.6403349 L133.773058,54.9630977 L130.716976,54.9630977 L130.716976,60.27103 C129.993167,59.4064805 128.987876,58.6625657 127.359306,58.6625657 C124.805869,58.6625657 122.45349,60.6329345 122.45349,64.2318735 C122.45349,67.8710241 124.846081,69.8413929 127.359306,69.8413929 L127.359306,69.8413929 Z M128.143433,67.2477442 C126.71592,67.2477442 125.509572,66.0615017 125.509572,64.2720851 C125.509572,62.4223511 126.71592,61.2562145 128.143433,61.2562145 C129.570945,61.2562145 130.757187,62.4424569 130.757187,64.2318735 C130.757187,66.0615017 129.570945,67.2477442 128.143433,67.2477442 L128.143433,67.2477442 Z M136.567765,57.6773813 L139.784693,57.6773813 L139.784693,54.9630977 L136.567765,54.9630977 L136.567765,57.6773813 Z M136.648188,69.6403349 L139.70427,69.6403349 L139.70427,58.8636237 L136.648188,58.8636237 L136.648188,69.6403349 Z M147.686274,69.8816045 C149.636537,69.8816045 151.084155,69.117584 152.089446,67.8710241 L150.340241,66.3228772 C149.495797,67.1070035 148.751882,67.4286964 147.726486,67.4286964 C146.359291,67.4286964 145.394213,66.7048874 145.092626,65.3175869 L152.592091,65.3175869 C152.612197,65.0361057 152.632302,64.7546244 152.632302,64.5133548 C152.632302,61.4572725 150.983626,58.6625657 147.384687,58.6625657 C144.248182,58.6625657 142.056649,61.195897 142.056649,64.2720851 C142.056649,67.6096486 144.44924,69.8816045 147.686274,69.8816045 L147.686274,69.8816045 Z M145.052414,63.4075355 C145.293684,62.020235 146.118022,61.1154738 147.384687,61.1154738 C148.671459,61.1154738 149.475691,62.0403408 149.656643,63.4075355 L145.052414,63.4075355 Z M158.684149,69.8413929 C161.016423,69.8413929 162.805839,68.7556795 162.805839,66.3630888 C162.805839,64.3525083 161.056634,63.6286994 159.548699,63.1260543 C158.382562,62.7239382 157.357166,62.4424569 157.357166,61.8392828 C157.357166,61.3768493 157.739177,61.0551564 158.483091,61.0551564 C159.267218,61.0551564 160.332825,61.4371667 161.398433,62.0604466 L162.56457,59.9493372 C161.398433,59.1652108 159.910603,58.7027773 158.543409,58.7027773 C156.371982,58.7027773 154.602671,59.9292314 154.602671,62.120764 C154.602671,64.2519793 156.311665,64.9556825 157.8196,65.3980102 C159.005842,65.7599146 160.051344,65.9810785 160.051344,66.64457 C160.051344,67.1673209 159.649228,67.4890138 158.764573,67.4890138 C157.759282,67.4890138 156.532828,67.0466861 155.366692,66.2022423 L154.059814,68.2128228 C155.487327,69.3387478 157.176214,69.8413929 158.684149,69.8413929 L158.684149,69.8413929 Z M89.6207114,88.9874265 L92.7170053,88.9874265 L92.7170053,84.6847844 L94.3455754,82.9958968 L98.708535,88.9874265 L102.428109,88.9874265 L96.4365791,80.8847873 L102.166733,74.9133634 L98.4270537,74.9133634 L92.7170053,81.0657396 L92.7170053,74.9133634 L89.6207114,74.9133634 L89.6207114,88.9874265 Z M105.544508,92.2646726 C107.374137,92.2646726 108.258792,91.4403346 109.08313,89.248802 L113.224926,78.2107154 L110.048209,78.2107154 L107.69583,85.549334 L105.242921,78.2107154 L102.005887,78.2107154 L106.228106,89.0276381 C105.96673,89.5704948 105.685249,89.7313413 105.162498,89.7313413 C104.760382,89.7313413 104.257737,89.550389 103.855621,89.3091194 L102.830225,91.5207579 C103.614351,91.9831914 104.438689,92.2646726 105.544508,92.2646726 L105.544508,92.2646726 Z M115.094766,77.0244729 L118.311694,77.0244729 L118.311694,74.3101893 L115.094766,74.3101893 L115.094766,77.0244729 Z M115.175189,88.9874265 L118.231271,88.9874265 L118.231271,78.2107154 L115.175189,78.2107154 L115.175189,88.9874265 Z M124.383647,89.0678497 L127.158248,89.0678497 L131.400573,78.2107154 L128.223856,78.2107154 L125.791053,85.4286991 L123.378357,78.2107154 L120.141322,78.2107154 L124.383647,89.0678497 Z"
                 id="Studies"
                 fill="#FFFFFF" />
            </g>
          </g>
        </g>
      </g>
    </g>
  </g>
</svg>
